X: 18135
T: Humours Of Castlefin, The
R: reel
M: 4/4
K: Edorian
|BE PE2 BEGB|AD PD2 FGAd|BE PE2 BGAF|GBAF PE2GA|
BE PE2 BEGB|AD PD2 FGAd|BE PE2 BGAF|GBAF PE2GA||
Beed egfe|defa afed|Beed efge|agfa geed|
Beed egfe|defa afd2|efga bagf|egfd Pe2dc||

